X: 20653
Q: "Slow strathspey time."
M: C
L: 1/16
K: Gm
f2 |\
d3Bf3B g3Bd3f | FF3F3D F4F3f |
d3fB3d c3Bcd3 | GG3G3^F G4G2f2 |\
d3Bf3B g3Bf3e | d3Bc3A B3GF2D2 |\
b3ag3f d2b2a2B2 | A2e2d2^F2 G4G2 |]


